X: 31
% Old value - X: 1
T: McHugh's
R: jig
M: 6/8
L: 1/8
K: Gmaj
B2d ded | BAB G2 B | AGE DEG | AGE D3 |
B2d ded | BAB GAB | AGE DEG |1 AGF G2 A :|2 AGF G2 c ||
|:B2B GAB | c2c ABc | B2B GcB | ABc d2 c |
B2B GAB | c3 B3 | AGE DEG |1 AGF G2 c :|2 AGF G3 ||

